src/img/icons/brand-01.svg

<svg width="64" height="65" viewBox="0 0 64 65" fill="none" xmlns="http://www.w3.org/2000/svg">
<path fill-rule="evenodd" clip-rule="evenodd" d="M32 63.2939C49.1208 63.2939 63 49.4148 63 32.2939C63 15.1731 49.1208 1.29395 32 1.29395C14.8792 1.29395 1 15.1731 1 32.2939C1 49.4148 14.8792 63.2939 32 63.2939ZM32 64.2939C49.6731 64.2939 64 49.9671 64 32.2939C64 14.6208 49.6731 0.293945 32 0.293945C14.3269 0.293945 0 14.6208 0 32.2939C0 49.9671 14.3269 64.2939 32 64.2939Z" fill="#1B1B1B"/>
<path fill-rule="evenodd" clip-rule="evenodd" d="M8.02232 14.2939C8.56823 26.498 19.058 36.2939 32 36.2939C44.942 36.2939 55.4318 26.498 55.9777 14.2939L8.02232 14.2939ZM7.02131 14.2939C7.56741 27.085 18.5418 37.2939 32 37.2939C45.4582 37.2939 56.4326 27.085 56.9787 14.2939C56.9928 13.9623 57 13.6289 57 13.2939L7 13.2939C7 13.6289 7.00715 13.9623 7.02131 14.2939Z" fill="#1B1B1B"/>
<path fill-rule="evenodd" clip-rule="evenodd" d="M3.01959 24.2939C3.58406 38.6835 16.2802 50.2939 32 50.2939C47.7198 50.2939 60.4159 38.6835 60.9804 24.2939L3.01959 24.2939ZM2.01878 24.2939C2.58295 39.2948 15.7901 51.2939 32 51.2939C48.2099 51.2939 61.417 39.2948 61.9812 24.2939C61.9937 23.962 62 23.6287 62 23.2939L2 23.2939C2 23.6287 2.0063 23.962 2.01878 24.2939Z" fill="#1B1B1B"/>
</svg>

<svg xmlns="http://www.w3.org/2000/svg" fill="none" viewBox="0 0 64 65"><path fill="#1B1B1B" fill-rule="evenodd" d="M32 63.294c17.12 0 31-13.88 31-31 0-17.12-13.88-31-31-31-17.12 0-31 13.88-31 31 0 17.12 13.88 31 31 31zm0 1c17.673 0 32-14.327 32-32 0-17.673-14.327-32-32-32-17.673 0-32 14.327-32 32 0 17.673 14.327 32 32 32z" clip-rule="evenodd"/><path fill="#1B1B1B" fill-rule="evenodd" d="M8.022 14.294c.546 12.204 11.036 22 23.978 22 12.942 0 23.432-9.796 23.978-22H8.022zm-1 0c.545 12.791 11.52 23 24.978 23 13.458 0 24.433-10.209 24.979-23 .014-.332.021-.665.021-1H7c0 .335.007.668.021 1z" clip-rule="evenodd"/><path fill="#1B1B1B" fill-rule="evenodd" d="M3.02 24.294c.564 14.39 13.26 26 28.98 26s28.416-11.61 28.98-26H3.02zm-1.001 0c.564 15 13.771 27 29.981 27s29.417-12 29.981-27c.013-.332.019-.665.019-1H2c0 .335.006.668.019 1z" clip-rule="evenodd"/></svg>
